src/img/decor/blog-bg-after.svg

<svg width="126" height="53" viewBox="0 0 126 53" fill="none" xmlns="http://www.w3.org/2000/svg">
<path fill-rule="evenodd" clip-rule="evenodd" d="M122.518 1.73686C122.518 0.77751 123.298 -0.000583 124.259 -0.000583C125.22 -0.000583 126 0.77751 126 1.73686C126 2.69701 125.22 3.4751 124.259 3.4751C123.298 3.4751 122.518 2.69701 122.518 1.73686ZM122.518 18.2451C122.518 17.2858 123.298 16.5076 124.259 16.5076C125.22 16.5076 126 17.2858 126 18.2451C126 19.2049 125.22 19.9834 124.259 19.9834C123.298 19.9834 122.518 19.2049 122.518 18.2451ZM122.518 34.7534C122.518 33.7936 123.298 33.0159 124.259 33.0159C125.22 33.0159 126 33.7936 126 34.7534C126 35.7127 125.22 36.4912 124.259 36.4912C123.298 36.4912 122.518 35.7127 122.518 34.7534ZM1.74082 49.5234C0.77931 49.5234 -0.000252 50.3019 -0.000252 51.2617C-0.000252 52.221 0.77931 52.9991 1.74082 52.9991C2.70232 52.9991 3.48163 52.221 3.48163 51.2617C3.48163 50.3019 2.70232 49.5234 1.74082 49.5234ZM13.7097 51.2617C13.7097 50.3019 14.4891 49.5234 15.4506 49.5234C16.4121 49.5234 17.1916 50.3019 17.1916 51.2617C17.1916 52.221 16.4121 52.9991 15.4506 52.9991C14.4891 52.9991 13.7097 52.221 13.7097 51.2617ZM28.9428 49.5234C27.9814 49.5234 27.2019 50.3019 27.2019 51.2617C27.2019 52.221 27.9814 52.9991 28.9428 52.9991C29.9043 52.9991 30.6836 52.221 30.6836 51.2617C30.6836 50.3019 29.9043 49.5234 28.9428 49.5234ZM40.9117 51.2617C40.9117 50.3019 41.6911 49.5234 42.6528 49.5234C43.6141 49.5234 44.3937 50.3019 44.3937 51.2617C44.3937 52.221 43.6141 52.9991 42.6528 52.9991C41.6911 52.9991 40.9117 52.221 40.9117 51.2617ZM56.1448 49.5234C55.1835 49.5234 54.404 50.3019 54.404 51.2617C54.404 52.221 55.1835 52.9991 56.1448 52.9991C57.1065 52.9991 57.8858 52.221 57.8858 51.2617C57.8858 50.3019 57.1065 49.5234 56.1448 49.5234ZM68.1138 51.2617C68.1138 50.3019 68.8934 49.5234 69.8548 49.5234C70.8163 49.5234 71.5957 50.3019 71.5957 51.2617C71.5957 52.221 70.8163 52.9991 69.8548 52.9991C68.8934 52.9991 68.1138 52.221 68.1138 51.2617ZM83.347 49.5234C82.3856 49.5234 81.606 50.3019 81.606 51.2617C81.606 52.221 82.3856 52.9991 83.347 52.9991C84.3085 52.9991 85.0881 52.221 85.0881 51.2617C85.0881 50.3019 84.3085 49.5234 83.347 49.5234ZM95.316 51.2617C95.316 50.3019 96.0954 49.5234 97.0569 49.5234C98.0183 49.5234 98.7977 50.3019 98.7977 51.2617C98.7977 52.221 98.0183 52.9991 97.0569 52.9991C96.0954 52.9991 95.316 52.221 95.316 51.2617ZM110.549 49.5234C109.588 49.5234 108.808 50.3019 108.808 51.2617C108.808 52.221 109.588 52.9991 110.549 52.9991C111.511 52.9991 112.29 52.221 112.29 51.2617C112.29 50.3019 111.511 49.5234 110.549 49.5234ZM124.259 49.5234C123.298 49.5234 122.518 50.3019 122.518 51.2617C122.518 52.221 123.298 52.9991 124.259 52.9991C125.22 52.9991 126 52.221 126 51.2617C126 50.3019 125.22 49.5234 124.259 49.5234ZM110.549 33.0159C109.588 33.0159 108.808 33.7936 108.808 34.7534C108.808 35.7127 109.588 36.4912 110.549 36.4912C111.511 36.4912 112.29 35.7127 112.29 34.7534C112.29 33.7936 111.511 33.0159 110.549 33.0159ZM95.316 34.7534C95.316 33.7936 96.0954 33.0159 97.0569 33.0159C98.0183 33.0159 98.7977 33.7936 98.7977 34.7534C98.7977 35.7127 98.0183 36.4912 97.0569 36.4912C96.0954 36.4912 95.316 35.7127 95.316 34.7534ZM83.347 33.0159C82.3856 33.0159 81.606 33.7936 81.606 34.7534C81.606 35.7127 82.3856 36.4912 83.347 36.4912C84.3085 36.4912 85.0881 35.7127 85.0881 34.7534C85.0881 33.7936 84.3085 33.0159 83.347 33.0159ZM68.1138 34.7534C68.1138 33.7936 68.8934 33.0159 69.8548 33.0159C70.8163 33.0159 71.5957 33.7936 71.5957 34.7534C71.5957 35.7127 70.8163 36.4912 69.8548 36.4912C68.8934 36.4912 68.1138 35.7127 68.1138 34.7534ZM56.1448 33.0159C55.1835 33.0159 54.404 33.7936 54.404 34.7534C54.404 35.7127 55.1835 36.4912 56.1448 36.4912C57.1065 36.4912 57.8858 35.7127 57.8858 34.7534C57.8858 33.7936 57.1065 33.0159 56.1448 33.0159ZM40.9117 34.7534C40.9117 33.7936 41.6911 33.0159 42.6528 33.0159C43.6141 33.0159 44.3937 33.7936 44.3937 34.7534C44.3937 35.7127 43.6141 36.4912 42.6528 36.4912C41.6911 36.4912 40.9117 35.7127 40.9117 34.7534ZM28.9428 33.0159C27.9814 33.0159 27.2019 33.7936 27.2019 34.7534C27.2019 35.7127 27.9814 36.4912 28.9428 36.4912C29.9043 36.4912 30.6836 35.7127 30.6836 34.7534C30.6836 33.7936 29.9043 33.0159 28.9428 33.0159ZM13.7097 34.7534C13.7097 33.7936 14.4891 33.0159 15.4506 33.0159C16.4121 33.0159 17.1916 33.7936 17.1916 34.7534C17.1916 35.7127 16.4121 36.4912 15.4506 36.4912C14.4891 36.4912 13.7097 35.7127 13.7097 34.7534ZM1.74082 33.0159C0.77931 33.0159 -0.000252 33.7936 -0.000252 34.7534C-0.000252 35.7127 0.77931 36.4912 1.74082 36.4912C2.70232 36.4912 3.48163 35.7127 3.48163 34.7534C3.48163 33.7936 2.70232 33.0159 1.74082 33.0159ZM110.549 16.5076C109.588 16.5076 108.808 17.2858 108.808 18.2451C108.808 19.2049 109.588 19.9834 110.549 19.9834C111.511 19.9834 112.29 19.2049 112.29 18.2451C112.29 17.2858 111.511 16.5076 110.549 16.5076ZM95.316 18.2451C95.316 17.2858 96.0954 16.5076 97.0569 16.5076C98.0183 16.5076 98.7977 17.2858 98.7977 18.2451C98.7977 19.2049 98.0183 19.9834 97.0569 19.9834C96.0954 19.9834 95.316 19.2049 95.316 18.2451ZM83.347 16.5076C82.3856 16.5076 81.606 17.2858 81.606 18.2451C81.606 19.2049 82.3856 19.9834 83.347 19.9834C84.3085 19.9834 85.0881 19.2049 85.0881 18.2451C85.0881 17.2858 84.3085 16.5076 83.347 16.5076ZM68.1138 18.2451C68.1138 17.2858 68.8934 16.5076 69.8548 16.5076C70.8163 16.5076 71.5957 17.2858 71.5957 18.2451C71.5957 19.2049 70.8163 19.9834 69.8548 19.9834C68.8934 19.9834 68.1138 19.2049 68.1138 18.2451ZM56.1448 16.5076C55.1835 16.5076 54.404 17.2858 54.404 18.2451C54.404 19.2049 55.1835 19.9834 56.1448 19.9834C57.1065 19.9834 57.8858 19.2049 57.8858 18.2451C57.8858 17.2858 57.1065 16.5076 56.1448 16.5076ZM40.9117 18.2451C40.9117 17.2858 41.6911 16.5076 42.6528 16.5076C43.6141 16.5076 44.3937 17.2858 44.3937 18.2451C44.3937 19.2049 43.6141 19.9834 42.6528 19.9834C41.6911 19.9834 40.9117 19.2049 40.9117 18.2451ZM28.9428 16.5076C27.9814 16.5076 27.2019 17.2858 27.2019 18.2451C27.2019 19.2049 27.9814 19.9834 28.9428 19.9834C29.9043 19.9834 30.6836 19.2049 30.6836 18.2451C30.6836 17.2858 29.9043 16.5076 28.9428 16.5076ZM13.7097 18.2451C13.7097 17.2858 14.4891 16.5076 15.4506 16.5076C16.4121 16.5076 17.1916 17.2858 17.1916 18.2451C17.1916 19.2049 16.4121 19.9834 15.4506 19.9834C14.4891 19.9834 13.7097 19.2049 13.7097 18.2451ZM1.74082 16.5076C0.77931 16.5076 -0.000252 17.2858 -0.000252 18.2451C-0.000252 19.2049 0.77931 19.9834 1.74082 19.9834C2.70232 19.9834 3.48163 19.2049 3.48163 18.2451C3.48163 17.2858 2.70232 16.5076 1.74082 16.5076ZM110.549 -0.000583C109.588 -0.000583 108.808 0.77751 108.808 1.73686C108.808 2.69701 109.588 3.4751 110.549 3.4751C111.511 3.4751 112.29 2.69701 112.29 1.73686C112.29 0.77751 111.511 -0.000583 110.549 -0.000583ZM95.316 1.73686C95.316 0.77751 96.0954 -0.000583 97.0569 -0.000583C98.0183 -0.000583 98.7977 0.77751 98.7977 1.73686C98.7977 2.69701 98.0183 3.4751 97.0569 3.4751C96.0954 3.4751 95.316 2.69701 95.316 1.73686ZM83.347 -0.000583C82.3856 -0.000583 81.606 0.77751 81.606 1.73686C81.606 2.69701 82.3856 3.4751 83.347 3.4751C84.3085 3.4751 85.0881 2.69701 85.0881 1.73686C85.0881 0.77751 84.3085 -0.000583 83.347 -0.000583ZM68.1138 1.73686C68.1138 0.77751 68.8934 -0.000583 69.8548 -0.000583C70.8163 -0.000583 71.5957 0.77751 71.5957 1.73686C71.5957 2.69701 70.8163 3.4751 69.8548 3.4751C68.8934 3.4751 68.1138 2.69701 68.1138 1.73686ZM56.1448 -0.000583C55.1835 -0.000583 54.404 0.77751 54.404 1.73686C54.404 2.69701 55.1835 3.4751 56.1448 3.4751C57.1065 3.4751 57.8858 2.69701 57.8858 1.73686C57.8858 0.77751 57.1065 -0.000583 56.1448 -0.000583ZM40.9117 1.73686C40.9117 0.77751 41.6911 -0.000583 42.6528 -0.000583C43.6141 -0.000583 44.3937 0.77751 44.3937 1.73686C44.3937 2.69701 43.6141 3.4751 42.6528 3.4751C41.6911 3.4751 40.9117 2.69701 40.9117 1.73686ZM28.9428 -0.000583C27.9814 -0.000583 27.2019 0.77751 27.2019 1.73686C27.2019 2.69701 27.9814 3.4751 28.9428 3.4751C29.9043 3.4751 30.6836 2.69701 30.6836 1.73686C30.6836 0.77751 29.9043 -0.000583 28.9428 -0.000583ZM13.7097 1.73686C13.7097 0.77751 14.4891 -0.000583 15.4506 -0.000583C16.4121 -0.000583 17.1916 0.77751 17.1916 1.73686C17.1916 2.69701 16.4121 3.4751 15.4506 3.4751C14.4891 3.4751 13.7097 2.69701 13.7097 1.73686ZM1.74082 -0.000583C0.77931 -0.000583 -0.000252 0.77751 -0.000252 1.73686C-0.000252 2.69701 0.77931 3.4751 1.74082 3.4751C2.70232 3.4751 3.48163 2.69701 3.48163 1.73686C3.48163 0.77751 2.70232 -0.000583 1.74082 -0.000583Z" fill="#FE3E57"/>
</svg>

<svg width="126" height="53" fill="none" xmlns="http://www.w3.org/2000/svg"><path fill-rule="evenodd" clip-rule="evenodd" d="M122.518 1.737c0-.96.78-1.738 1.741-1.738A1.74 1.74 0 01126 1.737c0 .96-.78 1.738-1.741 1.738a1.74 1.74 0 01-1.741-1.738zm0 16.508c0-.96.78-1.737 1.741-1.737A1.74 1.74 0 01126 18.245a1.74 1.74 0 01-3.482 0zm0 16.508c0-.96.78-1.737 1.741-1.737A1.74 1.74 0 01126 34.753c0 .96-.78 1.738-1.741 1.738a1.74 1.74 0 01-1.741-1.738zM1.741 49.523A1.74 1.74 0 000 51.262c0 .959.78 1.737 1.74 1.737a1.74 1.74 0 001.742-1.737c0-.96-.78-1.739-1.741-1.739zm11.969 1.739a1.74 1.74 0 013.482 0 1.74 1.74 0 01-1.741 1.737 1.74 1.74 0 01-1.741-1.737zm15.233-1.739a1.74 1.74 0 00-1.741 1.739c0 .959.78 1.737 1.74 1.737a1.74 1.74 0 001.742-1.737c0-.96-.78-1.739-1.741-1.739zm11.969 1.739a1.74 1.74 0 013.482 0 1.74 1.74 0 01-1.741 1.737 1.74 1.74 0 01-1.741-1.737zm15.233-1.739a1.74 1.74 0 00-1.741 1.739c0 .959.78 1.737 1.74 1.737a1.74 1.74 0 001.742-1.737c0-.96-.78-1.739-1.741-1.739zm11.969 1.739a1.74 1.74 0 013.482 0 1.74 1.74 0 01-1.741 1.737 1.74 1.74 0 01-1.741-1.737zm15.233-1.739a1.74 1.74 0 00-1.741 1.739c0 .959.78 1.737 1.741 1.737a1.74 1.74 0 001.741-1.737c0-.96-.78-1.739-1.741-1.739zm11.969 1.739a1.74 1.74 0 013.482 0 1.74 1.74 0 01-1.741 1.737 1.74 1.74 0 01-1.741-1.737zm15.233-1.739a1.74 1.74 0 00-1.741 1.739c0 .959.78 1.737 1.741 1.737a1.74 1.74 0 100-3.476zm13.71 0a1.74 1.74 0 00-1.741 1.739c0 .959.78 1.737 1.741 1.737A1.74 1.74 0 00126 51.262c0-.96-.78-1.739-1.741-1.739zm-13.71-16.507a1.74 1.74 0 00-1.741 1.737c0 .96.78 1.738 1.741 1.738a1.739 1.739 0 100-3.475zm-15.233 1.737c0-.96.78-1.737 1.74-1.737a1.74 1.74 0 011.742 1.737c0 .96-.78 1.738-1.741 1.738a1.74 1.74 0 01-1.741-1.738zm-11.969-1.737a1.74 1.74 0 00-1.741 1.737c0 .96.78 1.738 1.741 1.738a1.74 1.74 0 001.741-1.738c0-.96-.78-1.737-1.741-1.737zm-15.233 1.737c0-.96.78-1.737 1.74-1.737a1.74 1.74 0 011.742 1.737c0 .96-.78 1.738-1.741 1.738a1.74 1.74 0 01-1.741-1.738zm-11.97-1.737a1.74 1.74 0 00-1.74 1.737 1.74 1.74 0 003.482 0c0-.96-.78-1.737-1.741-1.737zm-15.232 1.737c0-.96.78-1.737 1.74-1.737a1.74 1.74 0 011.742 1.737c0 .96-.78 1.738-1.741 1.738a1.74 1.74 0 01-1.741-1.738zm-11.97-1.737a1.74 1.74 0 00-1.74 1.737 1.74 1.74 0 003.482 0c0-.96-.78-1.737-1.741-1.737zM13.71 34.753c0-.96.78-1.737 1.74-1.737a1.74 1.74 0 011.742 1.737c0 .96-.78 1.738-1.741 1.738a1.74 1.74 0 01-1.741-1.738zM1.74 33.016A1.74 1.74 0 000 34.753a1.74 1.74 0 003.482 0c0-.96-.78-1.737-1.741-1.737zm108.81-16.508a1.74 1.74 0 00-1.741 1.737 1.74 1.74 0 003.482 0 1.74 1.74 0 00-1.741-1.737zm-15.233 1.737c0-.96.78-1.737 1.74-1.737a1.74 1.74 0 011.742 1.737c0 .96-.78 1.738-1.741 1.738a1.74 1.74 0 01-1.741-1.738zm-11.969-1.737a1.74 1.74 0 00-1.741 1.737c0 .96.78 1.738 1.741 1.738a1.74 1.74 0 001.741-1.738c0-.96-.78-1.737-1.741-1.737zm-15.233 1.737c0-.96.78-1.737 1.74-1.737a1.74 1.74 0 011.742 1.737c0 .96-.78 1.738-1.741 1.738a1.74 1.74 0 01-1.741-1.738zm-11.97-1.737a1.74 1.74 0 00-1.74 1.737 1.74 1.74 0 003.482 0c0-.96-.78-1.737-1.741-1.737zm-15.232 1.737c0-.96.78-1.737 1.74-1.737a1.74 1.74 0 011.742 1.737c0 .96-.78 1.738-1.741 1.738a1.74 1.74 0 01-1.741-1.738zm-11.97-1.737a1.74 1.74 0 00-1.74 1.737 1.74 1.74 0 003.482 0c0-.96-.78-1.737-1.741-1.737zM13.71 18.245c0-.96.78-1.737 1.74-1.737a1.74 1.74 0 011.742 1.737c0 .96-.78 1.738-1.741 1.738a1.74 1.74 0 01-1.741-1.738zM1.74 16.508A1.74 1.74 0 000 18.245a1.74 1.74 0 003.482 0c0-.96-.78-1.737-1.741-1.737zM110.55-.001a1.74 1.74 0 00-1.741 1.738c0 .96.78 1.738 1.741 1.738a1.74 1.74 0 100-3.476zM95.316 1.737a1.74 1.74 0 013.482 0c0 .96-.78 1.738-1.741 1.738a1.74 1.74 0 01-1.741-1.738zM83.347-.001a1.74 1.74 0 00-1.741 1.738c0 .96.78 1.738 1.741 1.738a1.74 1.74 0 001.741-1.738c0-.96-.78-1.738-1.741-1.738zM68.114 1.737a1.74 1.74 0 013.482 0c0 .96-.78 1.738-1.741 1.738a1.74 1.74 0 01-1.741-1.738zM56.144-.001a1.74 1.74 0 00-1.74 1.738c0 .96.78 1.738 1.74 1.738a1.74 1.74 0 001.742-1.738c0-.96-.78-1.738-1.741-1.738zM40.913 1.737a1.74 1.74 0 013.482 0c0 .96-.78 1.738-1.741 1.738a1.74 1.74 0 01-1.741-1.738zM28.942-.001a1.74 1.74 0 00-1.74 1.738c0 .96.78 1.738 1.74 1.738a1.74 1.74 0 001.742-1.738c0-.96-.78-1.738-1.741-1.738zM13.71 1.737c0-.96.78-1.738 1.74-1.738a1.74 1.74 0 011.742 1.738c0 .96-.78 1.738-1.741 1.738a1.74 1.74 0 01-1.741-1.738zM1.74-.001A1.74 1.74 0 000 1.737c0 .96.78 1.738 1.74 1.738a1.74 1.74 0 001.742-1.738c0-.96-.78-1.738-1.741-1.738z" fill="#FE3E57"/></svg>
